X: 527
T: Wuge fangyang
L: 1/8
M: 2/4
K: F
c dc2 [I:setbarnb 1]| 
c GF2 | 
G c c G | 
G DC2 | 
F G F _E | 
D C c d | 
c c c F | 
G A G D | 
C4 |]

@@@ Tune index: 9401
